X: 3360
M: C
L: 1/8
K: Bb
(3(FGA) |\
|: (F>E) |\
(3DFB d2 (3Bdf b2 | b3a g>fe>d |\
e>de>f e>dc>B | A>cB>G F2(F>E) |\
(3DFB d2 (3Bdf b2 | b3a g>fe>d |\
e>dc>B A>fg>a | b2b2b2 :|


